X: 1
T:John M. Walker - Detroit
M:6/8
L:1/8
Q:80
C:
S:March
K:HP
|: {gf}g|
{ag}a2f{g}d2{e}A|
{Gdc}d3{e}A3|  !
{g}B2{Gdc}d2e{g}f2|
{gf}g/2a3/2f{g}d/2{gef}e3/2{gf}g|
{ag}a2f{g}d2{e}A|  !
B{Gdc}d{g}c{gBd}B2{e}G|
{g}A3/2{d}c/2e{a}g3/2e/2{g}c|
{Gdc}d3{gdG}d2:| |:  !
f|
{g}A3/2d/2f{gfg}f3/2e/2f|
a3/2d/2f{gf}g2{a}e|
{g}A2{d}c{gef}e3/2{g}c/2e|  !
{gf}g3/2{a}c/2e{gfg}f2{g}d|
{g}A3/2d/2f{gfg}f2{g}e|
{g}G3/2{d}B/2d{gde}d2{e}B|  !
{g}A3/2{d}c/2e{a}g3/2e/2{g}c|
{Gdc}d3{gdG}d2:| |:
f|  !
{g}A2f{AGAG}A2f|
{g}A3/2d/2f{gf}g2{a}e|
{g}A2{d}c{gef}e3/2{g}c/2e|  !
{a}g3/2{a}c/2e{gfg}f2d|
{g}A2f{AGAG}A2f|
{g}G3/2{d}B/2d{gde}d2B|  !
{g}A3/2{d}c/2e{a}g3/2e/2{g}c|
{Gdc}d3{gdG}d2:| |:
{gf}g|  !
a3/2{dG}d/2a{fg}f2{g}d|
{ag}a2d{gfg}f3/2e/2f|
{a}g3/2{dG}d/2g{a}e3/2{dG}d/2e|  !
{g}c/2e3/2{g}d{gcd}c3/2{g}B/2{d}A|
a3/2{dG}d/2a{fg}f2{g}e|
{Gdc}d3/2e/2{g}d{gBd}B2{e}G|  !
{g}A3/2{g}c/2e{a}g3/2e/2{g}c|
{Gdc}d3{gdG}d2:|
